X: 83
T: Trumpet Hornpipe (Pugwash)
B: begged borrowed and stolen
M:4/4
L:1/8
R: Hornpipe
Q: 1/4=100
K:G
V:1 
(3DEF|:(3"G"GGGG2 (3GGGG2|"G"BGBd gdBG|(3"D7"DDDD2 (3DDDD2|"D7"FDFA dAFD|
(3"G"GGGG2 (3GGGG2|"G"BGBd g2ag|"D"fafd "A7"ege^c|1"D"d2d2 "D7"d2 (3DEF:|2"D"d2d2 "D7"d2 ^c2||
|:(3"G"dddd2 (3dddd2|"C"efgf edcB|"Am"cded cBAG|"D7"FGAG FDEF|
(3"G"GGG G2 (3"G7"=FFF F2|(3"C"EEE E2 (3"Cm"_EEEE2|"D7"D2fe dcBA|1"G"G2B2 G2 ^c2:|1"G"G2B2 G4 ||
% abcbook-tune_id 627e2b1fe09acd638d7429c6


% abcbook-boost 0
% abcbook-tablature 
% abcbook-transpose 
% abcbook-lastupdated 1652725431120
% abcbook-soundfonts 
% abcbook-repeats 3
% Rhythm Hornpipe
% Titles One title
% Transcriptions Only 1 transcription
% Mode major
% Key G
% Time_signature 4/4
% Has_accompaniment_chords Has chords

